X:11
T:Hale Bopp
M:4/4
L:1/8
R:Reel
C:Gris Sanderson/James Dumbelton
Q:400
N:I'm not sure who wrote this  tune but I think it was a 
N:combined effort. There is a recording of it on the Waulk 
N:Elektrik album House Music. The first tune in that set is a 
N:Swedish polska entitled Brannvin, which is some kind of 
N:Swedish alcoholic beverage I believe. However, this tune was 
N:named after the comet Hale Bobb which graced our summer 
N:nights that year - can't remember what year it was, mind you.
K:Ador
A,CDE G2cB|AGAB A2E2|A,CDE G2cB|AGAB A2z2|
BABA E2EF|GFEG F2D2|d2cB G2AB|1cBGB A2AE:|2cBGB A2A2||
|:eage d2ef|gedf e2d2|ea-ab agef|gfeg a2ed|
eAABG2AB|1cBA2deg2|eAAB G2AB|cBGB A2A2:|
|2cBA2egfe|d2cBG2AB|cBGB A2A2||
